source/img/module.svg

<svg width="124" height="70" viewBox="0 0 124 70" fill="none" xmlns="http://www.w3.org/2000/svg">
<path d="M38.3223 54.7207L39.3594 54.8555C39.2461 55.5703 38.9551 56.1309 38.4863 56.5371C38.0215 56.9395 37.4492 57.1406 36.7695 57.1406C35.918 57.1406 35.2324 56.8633 34.7129 56.3086C34.1973 55.75 33.9395 54.9512 33.9395 53.9121C33.9395 53.2402 34.0508 52.6523 34.2734 52.1484C34.4961 51.6445 34.834 51.2676 35.2871 51.0176C35.7441 50.7637 36.2402 50.6367 36.7754 50.6367C37.4512 50.6367 38.0039 50.8086 38.4336 51.1523C38.8633 51.4922 39.1387 51.9766 39.2598 52.6055L38.2344 52.7637C38.1367 52.3457 37.9629 52.0312 37.7129 51.8203C37.4668 51.6094 37.168 51.5039 36.8164 51.5039C36.2852 51.5039 35.8535 51.6953 35.5215 52.0781C35.1895 52.457 35.0234 53.0586 35.0234 53.8828C35.0234 54.7188 35.1836 55.3262 35.5039 55.7051C35.8242 56.084 36.2422 56.2734 36.7578 56.2734C37.1719 56.2734 37.5176 56.1465 37.7949 55.8926C38.0723 55.6387 38.248 55.248 38.3223 54.7207ZM40.2676 50.7773H41.3223V53.3672H44.2461V50.7773H45.3008V57H44.2461V54.2402H41.3223V57H40.2676V50.7773ZM46.8945 50.7773H47.9492V55.5234L50.873 50.7773H52.0098V57H50.9551V52.2832L48.0312 57H46.8945V50.7773ZM57.3594 50.7773V53.4668C57.6953 53.4668 57.9316 53.4023 58.0684 53.2734C58.2051 53.1445 58.4043 52.7695 58.666 52.1484C58.9121 51.5586 59.1328 51.1816 59.3281 51.0176C59.5195 50.8574 59.8242 50.7773 60.2422 50.7773H60.6289V51.6504L60.3418 51.6445C60.0605 51.6445 59.8809 51.6855 59.8027 51.7676C59.7207 51.8535 59.5957 52.1094 59.4277 52.5352C59.2715 52.9414 59.127 53.2227 58.9941 53.3789C58.8613 53.5352 58.6543 53.6777 58.373 53.8066C58.8301 53.9277 59.2754 54.3496 59.709 55.0723L60.8691 57H59.709L58.5781 55.0723C58.3477 54.6816 58.1465 54.4258 57.9746 54.3047C57.8027 54.1836 57.5977 54.123 57.3594 54.123V57H56.2812V54.123C56.0469 54.123 55.8438 54.1836 55.6719 54.3047C55.5 54.4219 55.2988 54.6777 55.0684 55.0723L53.9375 57H52.7773L53.9316 55.0723C54.3691 54.3496 54.8164 53.9277 55.2734 53.8066C54.9609 53.6621 54.7422 53.5059 54.6172 53.3379C54.4922 53.166 54.3047 52.7598 54.0547 52.1191C53.9688 51.9043 53.877 51.7715 53.7793 51.7207C53.6777 51.6699 53.5273 51.6445 53.3281 51.6445C53.2773 51.6445 53.1738 51.6465 53.0176 51.6504V50.7773H53.1641C53.5703 50.7773 53.8555 50.8027 54.0195 50.8535C54.1875 50.9004 54.3359 51.0039 54.4648 51.1641C54.5977 51.3203 54.7695 51.6484 54.9805 52.1484C55.2383 52.7617 55.4336 53.1348 55.5664 53.2676C55.7031 53.4004 55.9414 53.4668 56.2812 53.4668V50.7773H57.3594ZM65.8848 54.9961L66.9746 55.1309C66.8027 55.7676 66.4844 56.2617 66.0195 56.6133C65.5547 56.9648 64.9609 57.1406 64.2383 57.1406C63.3281 57.1406 62.6055 56.8613 62.0703 56.3027C61.5391 55.7402 61.2734 54.9531 61.2734 53.9414C61.2734 52.8945 61.543 52.082 62.082 51.5039C62.6211 50.9258 63.3203 50.6367 64.1797 50.6367C65.0117 50.6367 65.6914 50.9199 66.2188 51.4863C66.7461 52.0527 67.0098 52.8496 67.0098 53.877C67.0098 53.9395 67.0078 54.0332 67.0039 54.1582H62.3633C62.4023 54.8418 62.5957 55.3652 62.9434 55.7285C63.291 56.0918 63.7246 56.2734 64.2441 56.2734C64.6309 56.2734 64.9609 56.1719 65.2344 55.9688C65.5078 55.7656 65.7246 55.4414 65.8848 54.9961ZM62.4219 53.291H65.8965C65.8496 52.7676 65.7168 52.375 65.498 52.1133C65.1621 51.707 64.7266 51.5039 64.1914 51.5039C63.707 51.5039 63.2988 51.666 62.9668 51.9902C62.6387 52.3145 62.457 52.748 62.4219 53.291ZM68.3105 50.7773H69.3652V53.3672H72.2891V50.7773H73.3438V57H72.2891V54.2402H69.3652V57H68.3105V50.7773ZM74.9375 50.7773H75.9922V55.5234L78.916 50.7773H80.0527V57H78.998V52.2832L76.0742 57H74.9375V50.7773ZM85.9004 54.9961L86.9902 55.1309C86.8184 55.7676 86.5 56.2617 86.0352 56.6133C85.5703 56.9648 84.9766 57.1406 84.2539 57.1406C83.3438 57.1406 82.6211 56.8613 82.0859 56.3027C81.5547 55.7402 81.2891 54.9531 81.2891 53.9414C81.2891 52.8945 81.5586 52.082 82.0977 51.5039C82.6367 50.9258 83.3359 50.6367 84.1953 50.6367C85.0273 50.6367 85.707 50.9199 86.2344 51.4863C86.7617 52.0527 87.0254 52.8496 87.0254 53.877C87.0254 53.9395 87.0234 54.0332 87.0195 54.1582H82.3789C82.418 54.8418 82.6113 55.3652 82.959 55.7285C83.3066 56.0918 83.7402 56.2734 84.2598 56.2734C84.6465 56.2734 84.9766 56.1719 85.25 55.9688C85.5234 55.7656 85.7402 55.4414 85.9004 54.9961ZM82.4375 53.291H85.9121C85.8652 52.7676 85.7324 52.375 85.5137 52.1133C85.1777 51.707 84.7422 51.5039 84.207 51.5039C83.7227 51.5039 83.3145 51.666 82.9824 51.9902C82.6543 52.3145 82.4727 52.748 82.4375 53.291ZM48.5 62.7773H50.9316C51.5293 62.7773 51.9727 62.8281 52.2617 62.9297C52.5547 63.0273 52.8047 63.209 53.0117 63.4746C53.2227 63.7402 53.3281 64.0586 53.3281 64.4297C53.3281 64.7266 53.2656 64.9863 53.1406 65.209C53.0195 65.4277 52.8359 65.6113 52.5898 65.7598C52.8828 65.8574 53.125 66.041 53.3164 66.3105C53.5117 66.5762 53.6094 66.8926 53.6094 67.2598C53.5703 67.8496 53.3594 68.2871 52.9766 68.5723C52.5938 68.8574 52.0371 69 51.3066 69H48.5V62.7773ZM49.5547 65.3965H50.6797C51.1289 65.3965 51.4375 65.373 51.6055 65.3262C51.7734 65.2793 51.9238 65.1855 52.0566 65.0449C52.1895 64.9004 52.2559 64.7285 52.2559 64.5293C52.2559 64.2012 52.1387 63.9727 51.9043 63.8438C51.6738 63.7148 51.2773 63.6504 50.7148 63.6504H49.5547V65.3965ZM49.5547 68.1328H50.9434C51.541 68.1328 51.9512 68.0645 52.1738 67.9277C52.3965 67.7871 52.5137 67.5469 52.5254 67.207C52.5254 67.0078 52.4609 66.8242 52.332 66.6562C52.2031 66.4844 52.0352 66.377 51.8281 66.334C51.6211 66.2871 51.2891 66.2637 50.832 66.2637H49.5547V68.1328ZM58.9883 66.9961L60.0781 67.1309C59.9062 67.7676 59.5879 68.2617 59.123 68.6133C58.6582 68.9648 58.0645 69.1406 57.3418 69.1406C56.4316 69.1406 55.709 68.8613 55.1738 68.3027C54.6426 67.7402 54.377 66.9531 54.377 65.9414C54.377 64.8945 54.6465 64.082 55.1855 63.5039C55.7246 62.9258 56.4238 62.6367 57.2832 62.6367C58.1152 62.6367 58.7949 62.9199 59.3223 63.4863C59.8496 64.0527 60.1133 64.8496 60.1133 65.877C60.1133 65.9395 60.1113 66.0332 60.1074 66.1582H55.4668C55.5059 66.8418 55.6992 67.3652 56.0469 67.7285C56.3945 68.0918 56.8281 68.2734 57.3477 68.2734C57.7344 68.2734 58.0645 68.1719 58.3379 67.9688C58.6113 67.7656 58.8281 67.4414 58.9883 66.9961ZM55.5254 65.291H59C58.9531 64.7676 58.8203 64.375 58.6016 64.1133C58.2656 63.707 57.8301 63.5039 57.2949 63.5039C56.8105 63.5039 56.4023 63.666 56.0703 63.9902C55.7422 64.3145 55.5605 64.748 55.5254 65.291ZM65.4688 66.7207L66.5059 66.8555C66.3926 67.5703 66.1016 68.1309 65.6328 68.5371C65.168 68.9395 64.5957 69.1406 63.916 69.1406C63.0645 69.1406 62.3789 68.8633 61.8594 68.3086C61.3438 67.75 61.0859 66.9512 61.0859 65.9121C61.0859 65.2402 61.1973 64.6523 61.4199 64.1484C61.6426 63.6445 61.9805 63.2676 62.4336 63.0176C62.8906 62.7637 63.3867 62.6367 63.9219 62.6367C64.5977 62.6367 65.1504 62.8086 65.5801 63.1523C66.0098 63.4922 66.2852 63.9766 66.4062 64.6055L65.3809 64.7637C65.2832 64.3457 65.1094 64.0312 64.8594 63.8203C64.6133 63.6094 64.3145 63.5039 63.9629 63.5039C63.4316 63.5039 63 63.6953 62.668 64.0781C62.3359 64.457 62.1699 65.0586 62.1699 65.8828C62.1699 66.7188 62.3301 67.3262 62.6504 67.7051C62.9707 68.084 63.3887 68.2734 63.9043 68.2734C64.3184 68.2734 64.6641 68.1465 64.9414 67.8926C65.2188 67.6387 65.3945 67.248 65.4688 66.7207ZM71.4688 68.2324C71.0781 68.5645 70.7012 68.7988 70.3379 68.9355C69.9785 69.0723 69.5918 69.1406 69.1777 69.1406C68.4941 69.1406 67.9688 68.9746 67.6016 68.6426C67.2344 68.3066 67.0508 67.8789 67.0508 67.3594C67.0508 67.0547 67.1191 66.7773 67.2559 66.5273C67.3965 66.2734 67.5781 66.0703 67.8008 65.918C68.0273 65.7656 68.2812 65.6504 68.5625 65.5723C68.7695 65.5176 69.082 65.4648 69.5 65.4141C70.3516 65.3125 70.9785 65.1914 71.3809 65.0508C71.3848 64.9062 71.3867 64.8145 71.3867 64.7754C71.3867 64.3457 71.2871 64.043 71.0879 63.8672C70.8184 63.6289 70.418 63.5098 69.8867 63.5098C69.3906 63.5098 69.0234 63.5977 68.7852 63.7734C68.5508 63.9453 68.377 64.252 68.2637 64.6934L67.2324 64.5527C67.3262 64.1113 67.4805 63.7559 67.6953 63.4863C67.9102 63.2129 68.2207 63.0039 68.627 62.8594C69.0332 62.7109 69.5039 62.6367 70.0391 62.6367C70.5703 62.6367 71.002 62.6992 71.334 62.8242C71.666 62.9492 71.9102 63.1074 72.0664 63.2988C72.2227 63.4863 72.332 63.7246 72.3945 64.0137C72.4297 64.1934 72.4473 64.5176 72.4473 64.9863V66.3926C72.4473 67.373 72.4688 67.9941 72.5117 68.2559C72.5586 68.5137 72.6484 68.7617 72.7812 69H71.6797C71.5703 68.7812 71.5 68.5254 71.4688 68.2324ZM71.3809 65.877C70.998 66.0332 70.4238 66.166 69.6582 66.2754C69.2246 66.3379 68.918 66.4082 68.7383 66.4863C68.5586 66.5645 68.4199 66.6797 68.3223 66.832C68.2246 66.9805 68.1758 67.1465 68.1758 67.3301C68.1758 67.6113 68.2812 67.8457 68.4922 68.0332C68.707 68.2207 69.0195 68.3145 69.4297 68.3145C69.8359 68.3145 70.1973 68.2266 70.5137 68.0508C70.8301 67.8711 71.0625 67.627 71.2109 67.3184C71.3242 67.0801 71.3809 66.7285 71.3809 66.2637V65.877Z" fill="#444444"/>
<path fill-rule="evenodd" clip-rule="evenodd" d="M3 1H121C122.105 1 123 1.89543 123 3V53C123 54.1046 122.105 55 121 55H105V56H121C122.657 56 124 54.6569 124 53V3C124 1.34315 122.657 0 121 0H3C1.34315 0 0 1.34314 0 3V53C0 54.6569 1.34314 56 3 56H18V55H3C1.89543 55 1 54.1046 1 53V3C1 1.89543 1.89543 1 3 1Z" fill="#CDCDCD"/>
<path d="M48.7898 37.6595C47.6218 37.6595 46.6938 37.4355 46.0058 36.9875C45.3178 36.5395 44.8218 35.8915 44.5178 35.0435C44.2298 34.1955 44.0858 33.1875 44.0858 32.0195H46.6538C46.6538 32.5955 46.7018 33.1635 46.7978 33.7235C46.8938 34.2675 47.0938 34.7235 47.3978 35.0915C47.7178 35.4435 48.1978 35.6195 48.8378 35.6195C49.5418 35.6195 50.0458 35.4195 50.3498 35.0195C50.6538 34.6035 50.8458 34.0515 50.9258 33.3635C51.0058 32.6595 51.0458 31.8675 51.0458 30.9875C51.0458 30.1075 50.9978 29.3635 50.9018 28.7555C50.8058 28.1315 50.6058 27.6595 50.3018 27.3395C49.9978 27.0035 49.5178 26.8355 48.8618 26.8355C48.3338 26.8355 47.8858 27.0035 47.5178 27.3395C47.1498 27.6595 46.8778 28.0275 46.7018 28.4435H44.5178V18.0275H52.8938V20.5955H46.8458L46.6778 25.9715C46.9978 25.6355 47.3898 25.3715 47.8538 25.1795C48.3338 24.9875 48.8778 24.8915 49.4858 24.8915C50.5418 24.8915 51.3658 25.1395 51.9578 25.6355C52.5658 26.1315 52.9898 26.8115 53.2298 27.6755C53.4858 28.5395 53.6138 29.5315 53.6138 30.6515C53.6138 31.6435 53.5418 32.5715 53.3978 33.4355C53.2538 34.2835 52.9978 35.0275 52.6298 35.6675C52.2778 36.2915 51.7898 36.7795 51.1658 37.1315C50.5418 37.4835 49.7498 37.6595 48.7898 37.6595ZM61.3682 37.4675V18.0275H64.0802V26.6675H65.0882L68.5682 18.0275H71.2802L67.4402 27.2675L71.7602 37.4675H69.0482L65.1122 27.9875H64.0802V37.4675H61.3682ZM73.5557 37.4675V18.0275H80.9477V20.0435H76.2677V37.4675H73.5557Z" fill="black"/>
</svg>

<svg width="124" height="70" fill="none" xmlns="http://www.w3.org/2000/svg"><path d="M38.322 54.72l1.037.136c-.113.714-.404 1.275-.873 1.681-.464.403-1.037.604-1.716.604-.852 0-1.538-.278-2.057-.832-.516-.559-.773-1.358-.773-2.397 0-.672.11-1.26.333-1.764.223-.504.561-.88 1.014-1.13a3.013 3.013 0 011.488-.381c.676 0 1.229.172 1.659.515.43.34.705.825.826 1.453l-1.026.159c-.097-.418-.271-.733-.521-.944a1.33 1.33 0 00-.897-.316c-.53 0-.963.191-1.294.574-.332.379-.499.98-.499 1.805 0 .836.16 1.443.48 1.822.321.379.74.568 1.255.568.414 0 .76-.127 1.037-.38.277-.254.453-.645.527-1.172zm1.946-3.943h1.054v2.59h2.924v-2.59h1.055V57h-1.055v-2.76h-2.924V57h-1.054v-6.223zm6.627 0h1.054v4.746l2.924-4.746h1.137V57h-1.055v-4.717L48.031 57h-1.136v-6.223zm10.464 0v2.69c.336 0 .573-.065.71-.194.136-.129.335-.504.597-1.125.246-.59.467-.966.662-1.13.191-.16.496-.24.914-.24h.387v.872l-.287-.005c-.282 0-.461.04-.54.123-.081.085-.206.341-.374.767-.156.406-.301.688-.434.844-.133.156-.34.299-.621.428.457.12.902.543 1.336 1.265L60.869 57h-1.16l-1.13-1.928c-.231-.39-.432-.646-.604-.767a1.04 1.04 0 00-.616-.182V57h-1.078v-2.877c-.234 0-.437.06-.61.182-.171.117-.372.373-.603.767L53.938 57h-1.16l1.154-1.928c.437-.722.884-1.144 1.341-1.265-.312-.145-.53-.301-.656-.47-.125-.171-.312-.577-.562-1.218-.086-.215-.178-.347-.276-.398-.101-.051-.252-.076-.45-.076l-.311.005v-.873h.146c.406 0 .691.026.855.076.169.047.317.15.446.311.133.156.304.484.515.984.258.614.454.987.586 1.12.137.132.375.199.715.199v-2.69h1.078zm8.526 4.22l1.09.134c-.172.637-.49 1.13-.956 1.482-.464.352-1.058.528-1.78.528-.91 0-1.634-.28-2.169-.838-.53-.563-.797-1.35-.797-2.362 0-1.047.27-1.859.809-2.437.54-.578 1.238-.867 2.098-.867.832 0 1.511.283 2.039.85.527.566.79 1.363.79 2.39 0 .063-.001.156-.005.281h-4.64c.038.684.232 1.207.58 1.57.347.364.78.545 1.3.545.387 0 .717-.101.99-.304.274-.203.49-.528.65-.973zm-3.463-1.706h3.475c-.047-.523-.18-.916-.399-1.178a1.616 1.616 0 00-1.307-.61c-.484 0-.892.163-1.224.487-.328.325-.51.758-.545 1.301zm5.889-2.514h1.054v2.59h2.924v-2.59h1.055V57h-1.055v-2.76h-2.924V57h-1.054v-6.223zm6.626 0h1.055v4.746l2.924-4.746h1.137V57h-1.055v-4.717L76.074 57h-1.136v-6.223zm10.963 4.22l1.09.134c-.172.637-.49 1.13-.955 1.482-.465.352-1.058.528-1.781.528-.91 0-1.633-.28-2.168-.838-.531-.563-.797-1.35-.797-2.362 0-1.047.27-1.859.809-2.437.539-.578 1.238-.867 2.097-.867.832 0 1.512.283 2.04.85.527.566.79 1.363.79 2.39 0 .063-.002.156-.006.281h-4.64c.039.684.232 1.207.58 1.57.348.364.781.545 1.3.545.388 0 .718-.101.991-.304.273-.203.49-.528.65-.973zm-3.463-1.706h3.475c-.047-.523-.18-.916-.398-1.178a1.616 1.616 0 00-1.307-.61 1.69 1.69 0 00-1.225.487c-.328.325-.51.758-.544 1.301zM48.5 62.777h2.432c.597 0 1.04.051 1.33.153.293.097.543.279.75.545.21.265.316.584.316.955 0 .297-.062.556-.187.779a1.49 1.49 0 01-.551.55c.293.098.535.282.726.552.196.265.293.582.293.949-.039.59-.25 1.027-.632 1.312-.383.285-.94.428-1.67.428H48.5v-6.223zm1.055 2.62h1.125c.449 0 .758-.024.925-.07a.978.978 0 00.452-.282.736.736 0 00.199-.516c0-.328-.117-.556-.352-.685-.23-.13-.627-.194-1.19-.194h-1.16v1.747zm0 2.736h1.388c.598 0 1.008-.069 1.23-.205.224-.14.34-.381.352-.721 0-.2-.064-.383-.193-.55a.82.82 0 00-.504-.323c-.207-.047-.539-.07-.996-.07h-1.277v1.869zm9.433-1.137l1.09.135c-.172.637-.49 1.13-.955 1.482-.465.352-1.058.528-1.781.528-.91 0-1.633-.28-2.168-.838-.531-.563-.797-1.35-.797-2.362 0-1.047.27-1.859.808-2.437.54-.578 1.239-.867 2.098-.867.832 0 1.512.283 2.04.85.527.566.79 1.363.79 2.39 0 .063-.002.156-.006.281h-4.64c.039.684.232 1.207.58 1.57.348.364.781.545 1.3.545.387 0 .718-.101.99-.304.274-.203.491-.528.651-.973zm-3.463-1.705H59c-.047-.523-.18-.916-.398-1.178a1.616 1.616 0 00-1.307-.61c-.485 0-.893.163-1.225.487-.328.324-.51.758-.545 1.301zm9.944 1.43l1.037.135c-.113.714-.404 1.275-.873 1.681-.465.402-1.037.604-1.717.604-.851 0-1.537-.278-2.057-.832-.515-.559-.773-1.358-.773-2.397 0-.672.111-1.26.334-1.764.223-.503.56-.88 1.014-1.13a3.013 3.013 0 011.488-.381c.676 0 1.228.172 1.658.515.43.34.705.825.826 1.454l-1.025.158c-.098-.418-.272-.733-.522-.944a1.33 1.33 0 00-.896-.316c-.531 0-.963.191-1.295.574-.332.379-.498.98-.498 1.805 0 .836.16 1.443.48 1.822.32.379.739.568 1.254.568.414 0 .76-.126 1.037-.38.278-.254.453-.645.528-1.172zm6 1.511c-.39.332-.768.567-1.131.704-.36.136-.746.205-1.16.205-.684 0-1.21-.166-1.576-.498-.368-.336-.551-.764-.551-1.284a1.738 1.738 0 01.75-1.441 2.6 2.6 0 01.761-.346 7.73 7.73 0 01.938-.158c.852-.102 1.478-.223 1.88-.363.005-.145.007-.237.007-.276 0-.43-.1-.732-.3-.908-.269-.238-.669-.357-1.2-.357-.496 0-.864.088-1.102.263-.234.172-.408.479-.521.92l-1.032-.14c.094-.442.249-.797.463-1.067.215-.273.526-.482.932-.627.406-.148.877-.222 1.412-.222.531 0 .963.062 1.295.187.332.125.576.283.732.475.157.187.266.426.328.715.036.18.053.504.053.972v1.407c0 .98.022 1.601.065 1.863.047.258.136.506.27.744H71.68a2.235 2.235 0 01-.211-.768zm-.088-2.355c-.383.156-.957.289-1.723.398-.433.063-.74.133-.92.211a.911.911 0 00-.562.844.9.9 0 00.316.703c.215.188.527.281.938.281.406 0 .767-.087 1.084-.263.316-.18.549-.424.697-.733.113-.238.17-.59.17-1.054v-.387z" fill="#444"/><path fill-rule="evenodd" clip-rule="evenodd" d="M3 1h118a2 2 0 012 2v50a2 2 0 01-2 2h-16v1h16a3 3 0 003-3V3a3 3 0 00-3-3H3a3 3 0 00-3 3v50a3 3 0 003 3h15v-1H3a2 2 0 01-2-2V3a2 2 0 012-2z" fill="#CDCDCD"/><path d="M48.79 37.66c-1.168 0-2.096-.224-2.784-.672-.688-.449-1.184-1.096-1.488-1.944-.288-.848-.432-1.856-.432-3.024h2.568c0 .575.048 1.143.144 1.703.096.544.296 1 .6 1.369.32.352.8.528 1.44.528.704 0 1.208-.2 1.512-.6.304-.417.496-.969.576-1.657.08-.703.12-1.495.12-2.375 0-.88-.048-1.625-.144-2.232-.096-.625-.296-1.096-.6-1.416-.304-.337-.784-.505-1.44-.505-.528 0-.976.168-1.344.505a3.01 3.01 0 00-.816 1.104h-2.184V18.027h8.376v2.568h-6.048l-.168 5.375c.32-.335.712-.6 1.176-.791.48-.192 1.024-.288 1.632-.288 1.056 0 1.88.248 2.472.744.608.495 1.032 1.175 1.272 2.04.256.864.384 1.856.384 2.976 0 .991-.072 1.92-.216 2.783-.144.848-.4 1.593-.768 2.232a3.787 3.787 0 01-1.464 1.465c-.624.352-1.416.528-2.376.528zm12.578-.192v-19.44h2.712v8.64h1.008l3.48-8.64h2.712l-3.84 9.24 4.32 10.2h-2.712l-3.936-9.48H64.08v9.48h-2.712zm12.188 0v-19.44h7.392v2.016h-4.68v17.424h-2.712z" fill="#000"/></svg>
